assets/home-tab/Asset/pz.svg

<svg width="16" height="16" viewBox="0 0 16 16" fill="none" xmlns="http://www.w3.org/2000/svg">
<path d="M5.66699 1.33398C6.77156 1.33398 7.66699 2.22941 7.66699 3.33398V5.66699C7.66699 6.77156 6.77156 7.66699 5.66699 7.66699H3.33398C2.22942 7.66699 1.33398 6.77156 1.33398 5.66699V3.33398C1.33399 2.22942 2.22942 1.33398 3.33398 1.33398H5.66699ZM4.00098 3.33398C3.63279 3.33398 3.33398 3.63279 3.33398 4.00098V5.00098C3.33416 5.36902 3.6329 5.66699 4.00098 5.66699H5.00098C5.36891 5.66682 5.66682 5.36891 5.66699 5.00098V4.00098C5.66699 3.6329 5.36902 3.33416 5.00098 3.33398H4.00098Z" fill="#1F589A"/>
<path d="M12.667 1.33398C13.7716 1.33398 14.667 2.22941 14.667 3.33398V5.66699C14.667 6.77156 13.7716 7.66699 12.667 7.66699H10.334C9.22942 7.66699 8.33398 6.77156 8.33398 5.66699V3.33398C8.33399 2.22942 9.22942 1.33398 10.334 1.33398H12.667ZM11.001 3.33398C10.6328 3.33398 10.334 3.63279 10.334 4.00098V5.00098C10.3342 5.36902 10.6329 5.66699 11.001 5.66699H12.001C12.3689 5.66682 12.6668 5.36891 12.667 5.00098V4.00098C12.667 3.6329 12.369 3.33416 12.001 3.33398H11.001Z" fill="#1F589A"/>
<path d="M5.66699 8.33398C6.77156 8.33398 7.66699 9.22941 7.66699 10.334V12.667C7.66699 13.7716 6.77156 14.667 5.66699 14.667H3.33398C2.22942 14.667 1.33398 13.7716 1.33398 12.667V10.334C1.33399 9.22942 2.22942 8.33398 3.33398 8.33398H5.66699ZM4.00098 10.334C3.63279 10.334 3.33398 10.6328 3.33398 11.001V12.001C3.33416 12.369 3.6329 12.667 4.00098 12.667H5.00098C5.36891 12.6668 5.66682 12.3689 5.66699 12.001V11.001C5.66699 10.6329 5.36902 10.3342 5.00098 10.334H4.00098Z" fill="#1F589A"/>
<path d="M15.5828 12.838C15.7846 12.8419 15.9465 13.0072 15.9461 13.2091C15.9456 13.3851 15.8209 13.5368 15.6482 13.5714L9.57889 14.7833C8.89509 14.9197 8.2726 14.3596 8.33573 13.6651C8.38532 13.1198 8.84786 12.7051 9.3953 12.7159L15.5828 12.838Z" fill="#1F589A"/>
<path d="M13.2066 8.55808C13.5969 8.50208 13.9494 8.78028 13.9966 9.16062C14.139 9.43232 14.108 9.7718 13.8961 10.0122L11.4937 12.728C11.3413 12.9003 11.1755 13.0621 10.9996 13.2104L10.5582 13.5825L9.96344 14.2231C9.59736 14.6171 8.97681 14.6276 8.59723 14.2466C8.22033 13.8677 8.23081 13.2518 8.62067 12.8862L11.7593 9.94383H8.79742C8.59292 9.94383 8.42642 9.7782 8.42633 9.57371C8.42648 9.38993 8.56186 9.23404 8.74371 9.2075L13.2066 8.55808Z" fill="#1F589A"/>
</svg>

<svg xmlns="http://www.w3.org/2000/svg" width="16" height="16" fill="none" viewBox="0 0 16 16"><path fill="#1f589a" d="M5.667 1.334a2 2 0 0 1 2 2v2.333a2 2 0 0 1-2 2H3.334a2 2 0 0 1-2-2V3.334a2 2 0 0 1 2-2zm-1.666 2a.667.667 0 0 0-.667.667v1c0 .368.299.666.667.666h1a.666.666 0 0 0 .666-.666v-1a.667.667 0 0 0-.666-.667zm8.666-2a2 2 0 0 1 2 2v2.333a2 2 0 0 1-2 2h-2.333a2 2 0 0 1-2-2V3.334a2 2 0 0 1 2-2zm-1.666 2a.667.667 0 0 0-.667.667v1c0 .368.299.666.667.666h1a.666.666 0 0 0 .666-.666v-1a.667.667 0 0 0-.666-.667zm-5.334 5a2 2 0 0 1 2 2v2.333a2 2 0 0 1-2 2H3.334a2 2 0 0 1-2-2v-2.333a2 2 0 0 1 2-2zm-1.666 2a.667.667 0 0 0-.667.667v1c0 .368.299.666.667.666h1a.666.666 0 0 0 .666-.666v-1a.667.667 0 0 0-.666-.667zm11.582 2.504a.37.37 0 0 1 .065.733l-6.07 1.212a1.044 1.044 0 1 1-.183-2.067z"/><path fill="#1f589a" d="M13.207 8.558a.697.697 0 0 1 .79.603.76.76 0 0 1-.1.851l-2.403 2.716a5 5 0 0 1-.494.482l-.442.372-.595.641a.948.948 0 1 1-1.342-1.337l3.138-2.942H8.797a.37.37 0 0 1-.053-.737z"/></svg>
